icons/gift-15.svg

<?xml version="1.0" encoding="utf-8"?>
<!-- Generator: Adobe Illustrator 19.2.1, SVG Export Plug-In . SVG Version: 6.00 Build 0)  -->
<!DOCTYPE svg PUBLIC "-//W3C//DTD SVG 1.1//EN" "http://www.w3.org/Graphics/SVG/1.1/DTD/svg11.dtd">
<svg version="1.1" id="Layer_1" xmlns="http://www.w3.org/2000/svg" xmlns:xlink="http://www.w3.org/1999/xlink" x="0px" y="0px"
	 width="15px" height="15px" viewBox="0 0 15 15" style="enable-background:new 0 0 15 15;" xml:space="preserve">
<path d="M6.5,5v2H0V5H6.5z M8.5,5v2H15V5H8.5z M1,8v4.5C1,13.3284,1.6716,14,2.5,14h4V8H1z M8.5,8v6h4c0.8284,0,1.5-0.6716,1.5-1.5
	V8H8.5z M10.5,0c-1.4033-0.0444-2.6497,0.8904-3,2.25C7.1497,0.8904,5.9033-0.0444,4.5,0c-1.0709-0.0337-1.9663,0.8072-2,1.8781
	C2.4987,1.9187,2.4987,1.9594,2.5,2C2.3443,2.9427,2.9822,3.8331,3.9249,3.9888C4.0853,4.0153,4.2486,4.0191,4.41,4h6.13
	c0.9548,0.1497,1.8503-0.5029,2-1.4577c0.0282-0.1797,0.0282-0.3626,0-0.5423c0.0002-1.1046-0.895-2.0002-1.9996-2.0004
	C10.5269-0.0004,10.5135-0.0003,10.5,0z M4.5,3c-0.506,0.0463-0.9537-0.3264-1-0.8323C3.4949,2.1119,3.4949,2.0558,3.5,2
	C3.4537,1.494,3.8264,1.0463,4.3323,1C4.3881,0.9949,4.4442,0.9949,4.5,1c1.1046,0,2,0.8954,2,2H4.5z M10.5,3h-2
	c0-1.1046,0.8954-2,2-2c0.5523,0,1,0.4477,1,1c0.0463,0.506-0.3264,0.9537-0.8323,1C10.6119,3.0051,10.5558,3.0051,10.5,3z"/>
</svg>

<svg id="Layer_1" data-name="Layer 1" xmlns="http://www.w3.org/2000/svg" width="15" height="15" viewBox="0 0 15 15">
  <title>gift-15</title>
  <path d="M6.5,5V7H0V5H6.5Zm2,0V7H15V5H8.5ZM1,8V12.5A1.5,1.5,0,0,0,2.5,14h4V8H1ZM8.5,8v6h4A1.5,1.5,0,0,0,14,12.5V8H8.5Zm2-8a3,3,0,0,0-3,2.25A3,3,0,0,0,4.5,0a1.94,1.94,0,0,0-2,2A1.73,1.73,0,0,0,4.41,4h6.13a1.75,1.75,0,0,0,2-2A2,2,0,0,0,10.5,0Zm-6,3a0.92,0.92,0,0,1-1-1,0.92,0.92,0,0,1,1-1,2,2,0,0,1,2,2h-2Zm6,0h-2a2,2,0,0,1,2-2,1,1,0,0,1,1,1A0.92,0.92,0,0,1,10.5,3Z"/>
</svg>
